X: 1
Q:90
T: The Bold Huzzar
R: hornpipe
M: 4/4
L: 1/8
K: Amaj
|:cB|AGAc eAcA|BAGF E2d2|cdea fedc|BAGF EFGE|
AGAc eAcA|BAGF E2d2|cecA fdBG|A2A2 A2:|
|:cd|efec Acec|fdfd B2cd|efec AGAc|BAGF EFGE|
ABAc eAcA|BAGF E2d2|cdea fdBG|A2A2 A2:|


P: Hyttstenspolketten
R: snoa, g\aangl\aat
O: efter Bengt Jonsson
Z: John Chambers <jc@trillian.mit.edu>
M: C
L: 1/8
K: D
FG \
| "D"A2 A2 "G"B2 AG | "D"(FG) A2 A3 z | {A}F2 f2 f2 ed | "A7"(cd) e2 e3 z \
| "A7"E3 F E2 (FG) | A3 B A2 (Bc) | "D"d2 cd "A7"e2 c2 | "D"d6 :|
|: de \
| "D"f2 fe f2 de | (fg) fe f2 gf | "A7"e2 (cd) e2 f2 | "G"g2 b2 "A7"a2 g2 \
| "D"f2 fe f2 de | (fg) fe f2 gf | "A7"e2 fg a2 c2 | "D"d6 :|

